X:337
T:Sligo Maid
Z: id:dc-reel-314
M:C
L:1/8
K:A Dorian
A2BA Bdef|gedB AGEF|G2BG dGBG|DEGA BAdB|!
A2BA Bdef|gedB AGEG|B3G A2GE|DEGA BAA2:|!
eaag a2ga|bgaf gfed|eggf g3e|dega bgag|!
eaag a2ga|bgaf gfed|egg2 edBc|dBgB BAA2:|!

